icons/bunlock.svg

<svg width="16" height="16" viewBox="0 0 16 16" fill="none" xmlns="http://www.w3.org/2000/svg">
<mask id="path-1-inside-1_1712_15" fill="white">
<path d="M4.6087 3.82608C6.96787 1.97627 6.30435 2.69565 7.7051 1C8.56522 2.13043 10.2117 3.00394 11.3913 3.82608C13.1607 5.05928 14.7826 6.60078 14.7826 9.06719C14.7826 12.1502 12.5687 14 7.7051 14C2.98677 14 1.21739 11.5336 1.21739 9.06719C1.21739 6.844 2.90748 5.15999 4.6087 3.82608Z"/>
</mask>
<path d="M7.7051 1L8.89885 0.0917172L7.75342 -1.41371L6.54866 0.044678L7.7051 1ZM4.6087 3.82608L5.53424 5.00649L5.53424 5.00649L4.6087 3.82608ZM14.7826 9.06719L13.2826 9.06719L13.2826 9.06719L14.7826 9.06719ZM11.3913 3.82608L12.249 2.59548L12.249 2.59548L11.3913 3.82608ZM6.54866 0.044678C5.78755 0.966026 5.71549 1.06446 5.53439 1.22128C5.43072 1.31105 5.29821 1.41138 4.98922 1.64376C4.69452 1.86539 4.28449 2.17417 3.68315 2.64567L5.53424 5.00649C6.11249 4.55309 6.50421 4.25811 6.79239 4.04138C7.06628 3.8354 7.29778 3.66275 7.49822 3.48918C7.92534 3.11933 8.22191 2.72963 8.86155 1.95532L6.54866 0.044678ZM3.68315 2.64567C1.99103 3.97244 -0.282608 6.05866 -0.282608 9.06719H2.71739C2.71739 7.62934 3.82392 6.34753 5.53424 5.00649L3.68315 2.64567ZM-0.282608 9.06719C-0.282608 10.6655 0.298262 12.3277 1.69083 13.5756C3.0738 14.8149 5.09261 15.5 7.7051 15.5V12.5C5.59926 12.5 4.37421 11.9519 3.69291 11.3414C3.02121 10.7395 2.71739 9.93526 2.71739 9.06719H-0.282608ZM7.7051 15.5C10.2876 15.5 12.4256 15.0156 13.9521 13.9013C15.5584 12.7287 16.2826 11.011 16.2826 9.06718L13.2826 9.06719C13.2826 10.2063 12.8999 10.9551 12.1833 11.4782C11.3869 12.0595 9.98613 12.5 7.7051 12.5V15.5ZM16.2826 9.06718C16.2826 5.81305 14.0915 3.87964 12.249 2.59548L10.5336 5.05668C12.2299 6.23891 13.2826 7.38851 13.2826 9.06719L16.2826 9.06718ZM12.249 2.59548C11.9277 2.37153 11.5794 2.14744 11.2516 1.936C10.915 1.71896 10.5926 1.51072 10.2834 1.2962C9.64742 0.854972 9.18121 0.462821 8.89885 0.0917172L6.51136 1.90828C7.08911 2.66761 7.87621 3.27744 8.57338 3.76111C8.93076 4.00903 9.29499 4.24398 9.62575 4.45727C9.96522 4.67616 10.2651 4.86956 10.5336 5.05668L12.249 2.59548Z" fill="#AAA596" mask="url(#path-1-inside-1_1712_15)"/>
<path d="M9.13043 10.6087H6.86956C6.86956 10.9855 7.09565 11.7391 8 11.7391C8.90435 11.7391 9.13043 10.9855 9.13043 10.6087Z" fill="#AAA596"/>
<path fill-rule="evenodd" clip-rule="evenodd" d="M10.2609 9.47828C10.8852 9.47828 11.3913 8.97216 11.3913 8.34784C11.3913 7.72352 10.8852 7.21741 10.2609 7.21741C9.63655 7.21741 9.13043 7.72352 9.13043 8.34784C9.13043 8.97216 9.63655 9.47828 10.2609 9.47828ZM5.73913 9.47829C6.36345 9.47829 6.86957 8.97218 6.86957 8.34786C6.86957 7.72354 6.36345 7.21742 5.73913 7.21742C5.11481 7.21742 4.6087 7.72354 4.6087 8.34786C4.6087 8.97218 5.11481 9.47829 5.73913 9.47829Z" fill="#AAA596"/>
</svg>

<svg xmlns="http://www.w3.org/2000/svg" width="16" height="16" fill="none" viewBox="0 0 16 16"><mask id="path-1-inside-1_1712_15" fill="#fff"><path d="M4.609 3.826C6.968 1.976 6.304 2.696 7.705 1c.86 1.13 2.507 2.004 3.686 2.826 1.77 1.233 3.392 2.775 3.392 5.241 0 3.083-2.214 4.933-7.078 4.933-4.718 0-6.488-2.466-6.488-4.933 0-2.223 1.69-3.907 3.392-5.24"/></mask><path fill="#AAA596" d="M7.705 1 8.9.092 7.753-1.414 6.55.045zM4.61 3.826l.925 1.18zm10.174 5.241h-1.5zm-3.392-5.24.858-1.232zM6.55.044c-.761.921-.834 1.02-1.015 1.176-.103.09-.236.19-.545.423-.294.221-.705.53-1.306 1.002l1.851 2.36c.578-.453.97-.748 1.258-.965.274-.206.506-.378.706-.552.427-.37.724-.76 1.364-1.534zm-2.866 2.6C1.991 3.973-.283 6.06-.283 9.068h3c0-1.438 1.107-2.72 2.817-4.06zM-.283 9.068c0 1.598.581 3.26 1.974 4.509C3.074 14.815 5.093 15.5 7.705 15.5v-3c-2.106 0-3.33-.548-4.012-1.159-.672-.601-.976-1.406-.976-2.274zM7.705 15.5c2.583 0 4.72-.484 6.247-1.599 1.606-1.172 2.33-2.89 2.33-4.834h-3c0 1.14-.382 1.888-1.099 2.411-.796.582-2.197 1.022-4.478 1.022zm8.578-6.433c0-3.254-2.192-5.187-4.034-6.472l-1.715 2.462c1.696 1.182 2.749 2.332 2.749 4.01zm-4.034-6.472c-.321-.223-.67-.448-.997-.659a35 35 0 0 1-.969-.64C9.647.855 9.181.463 8.9.092L6.51 1.908c.578.76 1.365 1.37 2.062 1.853.358.248.722.483 1.053.696.34.22.64.413.908.6z" mask="url(#path-1-inside-1_1712_15)"/><path fill="#AAA596" d="M9.13 10.609H6.87c0 .377.226 1.13 1.13 1.13s1.13-.754 1.13-1.13"/><path fill="#AAA596" fill-rule="evenodd" d="M10.26 9.478a1.13 1.13 0 1 0 0-2.26 1.13 1.13 0 0 0 0 2.26m-4.52 0a1.13 1.13 0 1 0 0-2.26 1.13 1.13 0 0 0 0 2.26" clip-rule="evenodd"/></svg>
